src/images/std-icons/std-medium.svg

<svg xmlns="http://www.w3.org/2000/svg" width="512" height="512" viewBox="0 0 512 512">
  <title>medium</title>
  <path fill="#000" fill-rule="nonzero" d="M256,42.6666667 C138.179253,42.6666667 42.6666667,138.179253 42.6666667,256 C42.6666667,373.820747 138.179253,469.333333 256,469.333333 C373.820747,469.333333 469.333333,373.820747 469.333333,256 C469.333333,199.420482 446.857207,145.158314 406.849447,105.150553 C366.841686,65.1427926 312.579518,42.6666667 256,42.6666667 Z M362.666667,174.293333 L345.6,190.72 C344.061644,191.844068 343.313083,193.757057 343.68,195.626667 L343.68,316.373333 C343.313083,318.242943 344.061644,320.155932 345.6,321.28 L362.24,337.706667 L362.24,341.333333 L278.826667,341.333333 L278.826667,337.706667 L296.106667,320.853333 C297.813333,319.146667 297.813333,318.72 297.813333,316.16 L297.813333,218.24 L249.6,341.333333 L242.986667,341.333333 L186.88,218.24 L186.88,300.586667 C186.355645,304.010234 187.460376,307.482244 189.866667,309.973333 L213.333333,337.28 L213.333333,341.333333 L149.333333,341.333333 L149.333333,337.92 L170.666667,309.973333 C173.025771,307.460378 174.054592,303.978214 173.44,300.586667 L173.44,205.44 C173.734586,202.779374 172.696743,200.144849 170.666667,198.4 L151.253333,174.293333 L151.253333,170.666667 L213.333333,170.666667 L261.76,277.333333 L304.426667,171.733333 L362.666667,171.733333 L362.666667,174.293333 Z"/>
</svg>

<svg xmlns="http://www.w3.org/2000/svg" viewBox="0 0 512 512">
  <title>
    medium
  </title>
  <path d="M256 42.67c-117.82 0-213.33 95.5-213.33 213.33 0 117.82 95.5 213.33 213.33 213.33 117.82 0 213.33-95.5 213.33-213.33A213.33 213.33 0 0 0 256 42.67zm106.67 131.62l-17.07 16.43a4.9 4.9 0 0 0-1.92 4.9v120.75a4.9 4.9 0 0 0 1.92 4.91l16.64 16.43v3.62h-83.41v-3.62l17.28-16.86c1.7-1.7 1.7-2.13 1.7-4.69v-97.92l-48.21 123.1h-6.61l-56.11-123.1v82.35a11.1 11.1 0 0 0 2.99 9.38l23.46 27.31v4.05h-64v-3.41l21.34-27.95c2.36-2.51 3.38-6 2.77-9.38v-95.15a8.1 8.1 0 0 0-2.77-7.04l-19.42-24.1v-3.63h62.08l48.43 106.66 42.67-105.6h58.24v2.56z"/>
</svg>
